X:1
T:Title
%%score { ( 1 3 ) | 2 }
L:1/8
M:4/4
K:F
V:1 treble nm="Grand Piano"
V:3 treble 
V:2 bass 
V:1
 z4 z2 z[Q:1/4=100] c | c2 c>d c2 A>G | F2 F>A c2 z [FA] | [FB]2 [FB]>[Fc] [Fd]2 d>[Be] | %4
[M:9/8] [Af]2 [Fc]- [Fc]/[FA]/ [EG]2- [EG]C>C |[M:4/4] F>E F>G A2 C>C | A>[EG] A>B c2 c>c | %7
 [Fd]>[Ff] e>d c2 [Fd]2 | c6 E2 |[M:7/8] F-F-F- F- F3 |] %10
V:2
 z4 z2 z [F,A,F] | [F,A,F]2 [F,A,F]>[F,B,F] [F,A,F]2 [F,CF]>[F,B,F] | %2
 [F,A,]2 [F,A,]>[F,CF] [F,A,F]2 z [_E,C] | [D,B,]2 [D,B,]>[C,B,] [B,,B,]2[K:treble] [B,F]>[G,C] | %4
[M:9/8][K:bass] [F,C]2 [A,C]- [A,C]/[F,C]/ [C,C]2- [C,C][C,G,]>[C,B,] | %5
[M:4/4] [F,A,C]>[F,G,C] [F,A,C]>[F,B,C] [F,CF]2 [F,A,]>[F,A,] | %6
 [F,CF]>[C,C][K:treble] [F,CF]>[G,CF] [A,CF]2 [F,A,F]>[F,A,F] | %7
 [B,,B,]>[D,B,] [F,B,F]>[F,B,F] [F,A,F]2 [B,,B,]2 | [C,A,]>[C,A,] [C,G,]>[C,G,] [F,A,]2 .[C,G,C]2 | %9
[M:7/8] [F,A,C]>[F,A,][F,B,]>[F,B,] [F,A,]3 |] %10
V:3
 x8 | x8 | x8 | x8 |[M:9/8] x9 |[M:4/4] x8 | x8 | x8 | F>F E>E F2 z B, |[M:7/8] z z/ C<DD/ C3 |] %10

